icon-themes/sifr_svg/cmd/sc_helplinesmove.svg

<svg viewBox="0 0 16 16" xmlns="http://www.w3.org/2000/svg"><path d="m5 1v1h1v-1zm4 0v1h1v-1zm-4 2v1h1v-1zm4 0v1h1v-1zm-4 2v1h1v-1zm4 0v1h1v-1zm-8 2v1h1v-1zm2 0v1h1v-1zm2 0v5h5v-5zm6 0v1h1v-1zm2 0v1h1v-1zm2 0v1h1v-1zm-14 4v1h1v-1zm2 0v1h1v-1zm8 0v1h1v-1zm2 0v1h1v-1zm2 0v1h1v-1zm-10 2v1h1v-1zm4 0v1h1v-1zm-4 2v1h1v-1zm4 0v1h1v-1z" fill="#555753"/></svg>

<svg xmlns="http://www.w3.org/2000/svg" viewBox="0 0 16 16">
  <path
     style="fill:#555753"
     d="M 5 1 L 5 2 L 6 2 L 6 1 L 5 1 z M 9 1 L 9 2 L 10 2 L 10 1 L 9 1 z M 5 3 L 5 4 L 6 4 L 6 3 L 5 3 z M 9 3 L 9 4 L 10 4 L 10 3 L 9 3 z M 5 5 L 5 6 L 6 6 L 6 5 L 5 5 z M 9 5 L 9 6 L 10 6 L 10 5 L 9 5 z M 1 7 L 1 8 L 2 8 L 2 7 L 1 7 z M 3 7 L 3 8 L 4 8 L 4 7 L 3 7 z M 5 7 L 5 12 L 10 12 L 10 7 L 5 7 z M 11 7 L 11 8 L 12 8 L 12 7 L 11 7 z M 13 7 L 13 8 L 14 8 L 14 7 L 13 7 z M 15 7 L 15 8 L 16 8 L 16 7 L 15 7 z M 1 11 L 1 12 L 2 12 L 2 11 L 1 11 z M 3 11 L 3 12 L 4 12 L 4 11 L 3 11 z M 11 11 L 11 12 L 12 12 L 12 11 L 11 11 z M 13 11 L 13 12 L 14 12 L 14 11 L 13 11 z M 15 11 L 15 12 L 16 12 L 16 11 L 15 11 z M 5 13 L 5 14 L 6 14 L 6 13 L 5 13 z M 9 13 L 9 14 L 10 14 L 10 13 L 9 13 z M 5 15 L 5 16 L 6 16 L 6 15 L 5 15 z M 9 15 L 9 16 L 10 16 L 10 15 L 9 15 z "
     />
</svg>
